frontend/src/assets/Board_Coin/Default/yellow-default-king-active.svg

<svg width="27" height="26" viewBox="0 0 27 26" fill="none" xmlns="http://www.w3.org/2000/svg">
<g clip-path="url(#clip0_1189_5244)">
<g opacity="0.69">
<path d="M13.6655 26C20.5691 26 26.1655 20.4036 26.1655 13.5C26.1655 6.59644 20.5691 1 13.6655 1C6.76197 1 1.16553 6.59644 1.16553 13.5C1.16553 20.4036 6.76197 26 13.6655 26Z" fill="#FFD015"/>
<path d="M13.6654 24.1097C19.525 24.1097 24.2751 19.3596 24.2751 13.5C24.2751 7.6404 19.525 2.89026 13.6654 2.89026C7.8058 2.89026 3.05566 7.6404 3.05566 13.5C3.05566 19.3596 7.8058 24.1097 13.6654 24.1097Z" fill="#FFC501"/>
<path d="M19.2154 4.44489C20.272 6.09303 20.8855 8.05483 20.8855 10.1597C20.8855 16.0176 16.1365 20.7694 10.2758 20.7694C8.23972 20.7694 6.3412 20.1971 4.72607 19.2039C6.61084 22.1479 9.90987 24.0987 13.6657 24.0987C19.5236 24.0987 24.2754 19.3497 24.2754 13.489C24.2754 9.66445 22.2503 6.31314 19.2182 4.44764L19.2154 4.44489Z" fill="#F5B611"/>
<path d="M4.91585 14.4713C4.91585 9.29851 9.10912 5.10525 14.2819 5.10525C17.3058 5.10525 19.994 6.53877 21.7054 8.76197C20.0875 5.95546 17.0582 4.06519 13.5858 4.06519C8.41299 4.06519 4.21973 8.25845 4.21973 13.4312C4.21973 15.5802 4.94337 17.5585 6.16228 19.1406C5.36985 17.7676 4.9186 16.1717 4.9186 14.4741L4.91585 14.4713Z" fill="#FFD453"/>
</g>
</g>
<circle cx="13.6655" cy="13" r="12" stroke="#FFFEFE" stroke-width="2"/>
<path d="M20.5473 10.8392C20.0673 11.1507 19.8625 11.6351 19.6982 12.1557C19.504 12.7659 19.312 13.374 19.0816 13.9714C18.7487 14.8291 18.5119 15.6974 18.6207 16.6298C18.6676 17.0501 18.5546 17.2507 18.0681 17.2464C15.1344 17.2272 12.2029 17.2315 9.26918 17.2443C8.85953 17.2443 8.67817 17.1248 8.71658 16.696C8.89153 14.7949 7.85461 13.1969 7.38735 11.458C7.32761 11.234 7.10999 11.1913 6.9905 11.0419C6.71954 10.7048 6.69607 10.3613 7.00117 10.0455C7.27 9.76605 7.60711 9.70204 7.93355 9.94314C8.27493 10.1949 8.3688 10.5277 8.15544 10.9161C7.87381 11.4324 8.12344 12.1109 8.75925 12.5675C9.32892 12.9771 9.72363 12.6784 10.0778 12.241C10.5003 11.7162 10.7435 11.0995 10.9953 10.4829C11.0827 10.2696 11.0486 10.133 10.9206 9.9538C10.656 9.58043 10.6816 9.20491 11.0593 8.91688C11.3772 8.67365 11.7143 8.70779 11.9916 8.99156C12.3223 9.3308 12.3181 9.70204 11.9767 10.0285C11.821 10.1778 11.7121 10.2866 11.8188 10.5192C12.1303 11.1892 12.429 11.8676 12.971 12.3904C13.4958 12.896 13.882 12.8896 14.3557 12.3626C14.8421 11.8207 15.0661 11.1379 15.335 10.4787C15.4395 10.2205 15.2347 10.1394 15.1131 9.99648C14.8357 9.6679 14.8293 9.31159 15.1259 9.00009C15.3947 8.71632 15.7318 8.66725 16.0583 8.90621C16.438 9.18571 16.5298 9.57403 16.2247 9.92607C15.9964 10.1906 16.054 10.3997 16.1607 10.6451C16.4252 11.2553 16.6877 11.8698 17.1528 12.3605C17.6713 12.9067 18.1791 12.9494 18.6719 12.3925C19.0581 11.9572 19.7835 11.5711 19.137 10.7667C18.9215 10.4979 19.1114 10.1437 19.4101 9.94314C19.9009 9.61243 20.2316 9.91327 20.5516 10.2482V10.8392H20.5473ZM15.7126 10.8777C15.4438 11.379 15.2176 11.8996 14.9061 12.3648C14.1743 13.4529 13.291 13.4764 12.4418 12.4736C12.0258 11.9829 11.742 11.4004 11.4305 10.7838C9.96473 13.374 9.89432 13.423 8.36027 12.9707C8.56083 13.5404 8.77845 14.1015 8.95554 14.6754C9.05155 14.9869 9.21157 15.1 9.53588 15.0979C12.2967 15.0872 15.0533 15.0915 17.8142 15.0915C18.0105 15.0915 18.2345 15.1214 18.3092 14.8739C18.497 14.2338 18.8405 13.6364 18.8853 12.9174C17.4558 13.5404 17.1336 13.327 15.7169 10.8777H15.7126ZM13.6558 16.7856C14.9851 16.7856 16.3164 16.76 17.6457 16.7984C18.162 16.8133 18.1961 16.5765 18.1791 16.1818C18.1641 15.8276 18.226 15.531 17.6713 15.5374C15.0107 15.5652 12.3501 15.5652 9.6895 15.5374C9.1753 15.531 9.16037 15.7614 9.1497 16.154C9.13903 16.5935 9.20517 16.8154 9.73644 16.7984C11.0401 16.7578 12.348 16.7856 13.6537 16.7856H13.6558Z" fill="#16120B"/>
<path d="M15.7145 10.8734C17.1291 13.3227 17.4534 13.5361 18.8829 12.9131C18.8381 13.6321 18.4946 14.2316 18.3068 14.8696C18.2343 15.1171 18.0081 15.0872 17.8119 15.0872C15.051 15.0872 12.2944 15.0829 9.53352 15.0936C9.20921 15.0936 9.04919 14.9827 8.95318 14.6712C8.77609 14.0972 8.55847 13.5361 8.35791 12.9664C9.89196 13.4187 9.96237 13.3697 11.4281 10.7795C11.7397 11.3982 12.0234 11.9764 12.4395 12.4693C13.2886 13.4721 14.1719 13.4486 14.9038 12.3605C15.2174 11.8953 15.4436 11.3726 15.7103 10.8734H15.7145Z" fill="#F5D336"/>
<path d="M13.6556 16.7813C12.3498 16.7813 11.0419 16.7536 9.73829 16.7941C9.20916 16.8112 9.14302 16.5914 9.15155 16.1498C9.16008 15.755 9.17502 15.5268 9.69135 15.5332C12.3519 15.5609 15.0125 15.5609 17.6731 15.5332C18.2278 15.5268 18.166 15.8212 18.1809 16.1775C18.198 16.5722 18.1638 16.809 17.6475 16.7941C16.3183 16.7557 14.9869 16.7813 13.6577 16.7813H13.6556Z" fill="#FBAC3A"/>
<defs>
<clipPath id="clip0_1189_5244">
<rect width="25" height="25" fill="white" transform="translate(1.16553 1)"/>
</clipPath>
</defs>
</svg>

<svg width="27" height="26" fill="none" xmlns="http://www.w3.org/2000/svg"><g opacity=".69" clip-path="url(#a)"><path d="M13.665 26c6.904 0 12.5-5.596 12.5-12.5S20.57 1 13.666 1c-6.903 0-12.5 5.596-12.5 12.5S6.763 26 13.666 26z" fill="#FFD015"/><path d="M13.665 24.11c5.86 0 10.61-4.75 10.61-10.61 0-5.86-4.75-10.61-10.61-10.61-5.86 0-10.61 4.75-10.61 10.61 0 5.86 4.75 10.61 10.61 10.61z" fill="#FFC501"/><path d="M19.215 4.445a10.555 10.555 0 0 1 1.67 5.715c0 5.858-4.748 10.61-10.61 10.61-2.035 0-3.934-.573-5.549-1.566a10.598 10.598 0 0 0 8.94 4.895c5.858 0 10.61-4.75 10.61-10.61 0-3.825-2.026-7.176-5.058-9.041l-.003-.003z" fill="#F5B611"/><path d="M4.916 14.471a9.366 9.366 0 0 1 16.79-5.709A9.366 9.366 0 1 0 6.162 19.141a9.31 9.31 0 0 1-1.244-4.667l-.003-.003z" fill="#FFD453"/></g><circle cx="13.665" cy="13" r="12" stroke="#FFFEFE" stroke-width="2"/><path d="M20.547 10.84c-.48.31-.684.795-.849 1.316-.194.61-.386 1.218-.616 1.815-.333.858-.57 1.726-.461 2.659.047.42-.066.62-.553.616-2.934-.019-5.865-.014-8.799-.002-.41 0-.59-.12-.552-.548.175-1.901-.862-3.5-1.33-5.238-.06-.224-.277-.267-.396-.416-.271-.337-.295-.68.01-.996.269-.28.606-.344.933-.103.34.252.435.585.221.973-.281.516-.032 1.195.604 1.652.57.41.965.11 1.319-.327.422-.525.665-1.141.917-1.758.088-.213.054-.35-.074-.53-.265-.373-.24-.748.138-1.036.318-.243.655-.21.933.075.33.339.326.71-.015 1.036-.156.15-.265.259-.158.491.311.67.61 1.349 1.152 1.871.525.506.911.5 1.385-.027.486-.542.71-1.225.979-1.884.104-.258-.1-.34-.222-.483-.277-.328-.284-.684.013-.996.269-.284.606-.333.932-.094.38.28.472.668.167 1.02-.229.265-.171.474-.064.72.264.61.527 1.224.992 1.714.518.547 1.026.59 1.519.033.386-.436 1.111-.822.465-1.626-.215-.27-.026-.623.273-.824.49-.33.822-.03 1.142.305v.591h-.005zm-4.834.038c-.27.501-.495 1.022-.807 1.487-.732 1.088-1.615 1.111-2.464.109-.416-.491-.7-1.074-1.011-1.69-1.466 2.59-1.537 2.639-3.07 2.187.2.57.417 1.13.595 1.704.096.312.256.425.58.423 2.76-.01 5.517-.007 8.278-.007.197 0 .42.03.495-.217.188-.64.531-1.238.576-1.957-1.43.623-1.751.41-3.168-2.04h-.004zm-2.057 5.908c1.33 0 2.66-.026 3.99.012.516.015.55-.221.533-.616-.015-.354.047-.651-.508-.645-2.66.028-5.32.028-7.981 0-.515-.006-.53.224-.54.617-.011.44.055.661.586.644 1.304-.04 2.612-.012 3.918-.012h.002z" fill="#16120B"/><path d="M15.714 10.873c1.415 2.45 1.74 2.663 3.169 2.04-.045.72-.388 1.319-.576 1.957-.073.247-.299.217-.495.217-2.761 0-5.518-.004-8.278.007-.325 0-.485-.111-.58-.423-.178-.574-.396-1.135-.596-1.705 1.534.453 1.604.404 3.07-2.186.312.618.595 1.196 1.011 1.69.85 1.002 1.733.979 2.465-.11.313-.465.54-.987.806-1.487h.004z" fill="#F5D336"/><path d="M13.656 16.781c-1.306 0-2.614-.027-3.918.013-.529.017-.595-.203-.586-.644.008-.395.023-.623.54-.617 2.66.028 5.32.028 7.981 0 .555-.006.493.288.508.644.017.395-.017.632-.534.617-1.329-.038-2.66-.013-3.99-.013h-.001z" fill="#FBAC3A"/><defs><clipPath id="a"><path fill="#fff" transform="translate(1.166 1)" d="M0 0h25v25H0z"/></clipPath></defs></svg>
